X: 38293
T: St. Patrick Was A Gentleman
R: reel
M: 4/4
K: Eminor
|B/A/|GE EE|B,E EE|FD D/E/F/G/|A2 GF|
GE EE|B,E EE|FD D/E/F/G/|A2 GF|
|:Ee e>d|eB B>A|Be e>d|e2 ef|
ge f^d|eB BA/G/|FD D/E/F/G/|A2 D2:|

